public/images/hashed/323b7cb317ff40bd9ed94f7fa34217aa.svg

<?xml version="1.0" encoding="UTF-8"?>
<svg width="80px" height="80px" viewBox="0 0 80 80" version="1.1" xmlns="http://www.w3.org/2000/svg" xmlns:xlink="http://www.w3.org/1999/xlink">
    <!-- Generator: Sketch 64 (93537) - https://sketch.com -->
    <title>Icon-Architecture/64/Arch_AWS-Data-Sync_64</title>
    <desc>Created with Sketch.</desc>
    <defs>
        <linearGradient x1="0%" y1="100%" x2="100%" y2="0%" id="linearGradient-1">
            <stop stop-color="#055F4E" offset="0%"></stop>
            <stop stop-color="#56C0A7" offset="100%"></stop>
        </linearGradient>
    </defs>
    <g id="Icon-Architecture/64/Arch_AWS-Data-Sync_64" stroke="none" stroke-width="1" fill="none" fill-rule="evenodd">
        <g id="Icon-Architecture-BG/64/Migration-Transfer" fill="url(#linearGradient-1)">
            <rect id="Rectangle" x="0" y="0" width="80" height="80"></rect>
        </g>
        <path d="M58.9090032,32.1635045 C58.3470034,27.9434484 55.9420042,25.7716538 53.779005,25.1420325 C51.8510057,24.5821479 49.8730064,25.038424 48.3260069,26.3335309 C47.5000072,24.6409258 46.3010076,23.0031137 44.7470081,21.4509779 C40.2700097,16.9778778 34.3880118,15.8102891 28.6100138,18.2480788 C23.6210155,20.3531257 20.0000193,25.7666726 20.0000193,31.1204453 L20.0000193,32.3607592 C15.4160184,33.7933467 13.0000193,37.1387075 13.0000193,42.0790422 L15.0000193,42.0790422 C15.0000193,37.7673324 17.0440179,35.1502203 21.2480164,34.0782702 C21.6900162,33.9656955 22.0000193,33.5681974 22.0000193,33.1129175 L22.0000193,31.1204453 C22.0000193,26.6055034 25.177015,21.8604309 29.3890135,20.0831457 C34.3810118,17.9780989 39.45901,18.9902747 43.3310086,22.8576632 C45.117008,24.6429183 46.3710076,26.5287932 47.0560073,28.4634837 C47.1800073,28.81117 47.4860072,29.0622215 47.8520071,29.1170145 C48.2170069,29.1728037 48.5850068,29.0203796 48.8050067,28.7235013 C49.9160063,27.2251622 51.6080057,26.5875711 53.2190052,27.0548058 C55.3700044,27.6814383 56.7840039,29.9707888 57.0020039,33.1806615 C57.0380038,33.7026892 57.4730037,34.1091535 58.0000035,34.1091535 C60.0750028,34.1091535 66.0000007,35.5736206 66.0000007,42.0790422 C66.0000007,50.8967278 58.3240034,51.0431745 58.0000035,51.045167 L52.0000056,51.045167 L52.0000056,53.0376392 L58.0000035,53.0376392 C58.0990035,53.0376392 68,52.9121134 68,42.0790422 C68,35.368396 62.7560018,32.5500441 58.9090032,32.1635045 L58.9090032,32.1635045 Z M39.6290099,41.3049668 C39.32801,41.0628814 38.9150102,41.0150621 38.5690103,41.1804373 C38.2220104,41.3458125 38.0000105,41.6954913 38.0000105,42.0790422 L38.0000105,45.0647618 L33.0020123,45.0647618 L33.0020123,47.0572339 L39.0000102,47.0572339 C39.55301,47.0572339 40,46.6109202 40,46.0609979 L40,44.1671531 L46.0580077,49.0526948 L40,53.9382366 L40,52.0414031 C40,51.4914808 39.55301,51.045167 39.0000102,51.045167 L23.0000158,51.045167 L23.0000158,49.0526948 C23.0000158,48.6771138 22.7880158,48.3334124 22.452016,48.1640522 C22.1170161,47.9946921 21.7140162,48.0285641 21.4090163,48.2487323 L12.4090195,54.8209017 C12.1490196,55.0101866 11.9980196,55.3110499 12,55.6308417 C12.0020196,55.9506335 12.1580196,56.2505005 12.4200195,56.4358004 L21.4200163,62.8156963 C21.5930163,62.9382334 21.7960162,63 22.0000161,63 C22.1560161,63 22.314016,62.9641355 22.458016,62.8894178 C22.7910158,62.7180652 23.0000158,62.3763562 23.0000158,62.0037639 L23.0000158,60.0272315 L28.000014,60.0272315 L28.000014,58.0347594 L22.0000161,58.0347594 C21.4470163,58.0347594 21.0000165,58.4810731 21.0000165,59.0309954 L21.0000165,60.0720621 L14.7080187,55.6119132 L21.0000165,51.0182686 L21.0000165,52.0414031 C21.0000165,52.5913254 21.4470163,53.0376392 22.0000161,53.0376392 L38.0000105,53.0376392 L38.0000105,56.0263474 C38.0000105,56.4098983 38.2220104,56.7595772 38.5690103,56.9249524 C38.9150102,57.0913238 39.32901,57.0435044 39.6290099,56.8004228 L48.2770069,49.8267703 C48.5120068,49.6384816 48.6480068,49.3535581 48.6480068,49.0526948 C48.6480068,48.7518315 48.5120068,48.4679042 48.2770069,48.2786194 L39.6290099,41.3049668 Z M30.0000133,60.0112917 L33.0000133,60.0112917 L33.0000133,58.0188196 L30.0000133,58.0188196 L30.0000133,60.0112917 Z M36.0000112,60.0112917 L48.0000112,60.0112917 L48.0000112,58.0188196 L36.0000112,58.0188196 L36.0000112,60.0112917 Z M13.0000193,47.0602226 L25.9510147,47.0602226 L25.9510147,45.0677505 L13.0000193,45.0677505 L13.0000193,47.0602226 Z M28.003014,47.0602226 L30.857013,47.0602226 L30.857013,45.0677505 L28.003014,45.0677505 L28.003014,47.0602226 Z" id="AWS-Data-Sync_Icon_64_Squid" fill="#FFFFFF"></path>
    </g>
</svg>

<svg xmlns="http://www.w3.org/2000/svg" width="80" height="80"><defs><linearGradient id="a" x1="0%" x2="100%" y1="100%" y2="0%"><stop offset="0%" stop-color="#055F4E"/><stop offset="100%" stop-color="#56C0A7"/></linearGradient></defs><g fill="none" fill-rule="evenodd"><path fill="url(#a)" d="M0 0h80v80H0z"/><path fill="#FFF" d="M58.909 32.164c-.562-4.22-2.967-6.392-5.13-7.022-1.928-.56-3.906-.104-5.453 1.192-.826-1.693-2.025-3.33-3.579-4.883-4.477-4.473-10.359-5.64-16.137-3.203C23.621 20.353 20 25.767 20 31.12v1.24c-4.584 1.433-7 4.779-7 9.719h2c0-4.312 2.044-6.929 6.248-8a.997.997 0 0 0 .752-.966V31.12c0-4.514 3.177-9.26 7.389-11.037 4.992-2.105 10.07-1.093 13.942 2.775 1.786 1.785 3.04 3.67 3.725 5.605a1.002 1.002 0 0 0 1.749.26c1.111-1.498 2.803-2.135 4.414-1.668 2.151.626 3.565 2.916 3.783 6.126a.999.999 0 0 0 .998.928c2.075 0 8 1.465 8 7.97 0 8.818-7.676 8.964-8 8.966h-6v1.993h6c.099 0 10-.126 10-10.959 0-6.71-5.244-9.529-9.091-9.915Zm-19.28 9.141a1.003 1.003 0 0 0-1.06-.125.997.997 0 0 0-.569.899v2.986h-4.998v1.992H39c.553 0 1-.446 1-.996v-1.894l6.058 4.886L40 53.938v-1.897a.998.998 0 0 0-1-.996H23v-1.992a.996.996 0 0 0-.548-.889 1.008 1.008 0 0 0-1.043.085l-9 6.572a.993.993 0 0 0 .011 1.615l9 6.38a1.002 1.002 0 0 0 1.58-.812v-1.977h5v-1.992h-6c-.553 0-1 .446-1 .996v1.041l-6.292-4.46L21 51.018v1.023c0 .55.447.997 1 .997h16v2.988a.999.999 0 0 0 1.629.774l8.648-6.973a.991.991 0 0 0 0-1.548l-8.648-6.974ZM30 60.011h3V58.02h-3v1.992Zm6 0h12V58.02H36v1.992Zm-23-12.95h12.951v-1.993H13v1.992Zm15.003 0h2.854v-1.993h-2.854v1.992Z"/></g></svg>
